X: 2267
T: Baby Broon
R: reel
M: 4/4
K: Dminor
DEFE Dd d/d/d|DFAF GAGF|DEFE DA, A,/A,/A,|B,DFD CEGA|
DEFE Ddd/d/d|DFAF GAcd|fd d/d/d ecdA|1 cAge d4:|2 cAge defg||
a3 b agfa|g/g/g ga gfeg|fd d/d/d dcAc|Bdfd cegb|
a3 b agfa|g/g/g ga gfeg|fd d/d/d gdad|1 fdcA defg:|2 fdcA d4||

